packages/nodes-base/nodes/Pipedrive/pipedrive.svg

<svg xmlns:xlink="http://www.w3.org/1999/xlink" width="60" height="60" viewBox="0 0 32 32" fill="none" xmlns="http://www.w3.org/2000/svg"><mask id="mask001" mask-type="alpha" maskUnits="userSpaceOnUse" x="0" y="0" width="32" height="32" fill="#26292C"><path d="M2.73694 0H29.2631C30.7746 0 32 1.22507 32 2.73695V29.2631C32 30.7746 30.7749 32 29.2631 32H2.73694C1.22537 32 0 30.7749 0 29.2631V2.73695C0 1.22537 1.22508 0 2.73694 0Z" fill="#26292C"></path></mask><g mask="url(#mask001)" fill="#26292C"><path d="M2.73694 0H29.2631C30.7746 0 32 1.22507 32 2.73695V29.2631C32 30.7746 30.7749 32 29.2631 32H2.73694C1.22537 32 0 30.7749 0 29.2631V2.73695C0 1.22537 1.22508 0 2.73694 0Z" fill="#26292C"></path></g><mask id="mask1" mask-type="alpha" maskUnits="userSpaceOnUse" x="7" y="4" width="18" height="24" fill="#26292C"><path d="M13.3348 13.1766C13.3348 15.3194 14.4219 17.6311 16.8141 17.6311C18.5881 17.6311 20.3819 16.2461 20.3819 13.1451C20.3819 10.4264 18.9718 8.60127 16.8731 8.60127C15.163 8.60127 13.3348 9.80258 13.3348 13.1766ZM17.7158 4.63159C22.0051 4.63159 24.8891 8.02873 24.8891 13.0856C24.8891 18.0629 21.8509 21.5378 17.5076 21.5378C15.4368 21.5378 14.1103 20.6509 13.4168 20.0089C13.4217 20.1611 13.425 20.3316 13.425 20.5136V27.2632H8.98164V9.2797C8.98164 9.01824 8.89802 8.93552 8.63897 8.93552H7.11085V4.99729H10.8393C12.556 4.99729 12.9954 5.87097 13.079 6.54444C13.7759 5.76342 15.2204 4.63159 17.7158 4.63159Z" fill="#26292C"></path></mask><g mask="url(#mask1)" fill="#26292C"><path d="M13.3348 13.1766C13.3348 15.3194 14.4219 17.6311 16.8141 17.6311C18.5881 17.6311 20.3819 16.2461 20.3819 13.1451C20.3819 10.4264 18.9718 8.60127 16.8731 8.60127C15.163 8.60127 13.3348 9.80258 13.3348 13.1766ZM17.7158 4.63159C22.0051 4.63159 24.8891 8.02873 24.8891 13.0856C24.8891 18.0629 21.8509 21.5378 17.5076 21.5378C15.4368 21.5378 14.1103 20.6509 13.4168 20.0089C13.4217 20.1611 13.425 20.3316 13.425 20.5136V27.2632H8.98164V9.2797C8.98164 9.01824 8.89802 8.93552 8.63897 8.93552H7.11085V4.99729H10.8393C12.556 4.99729 12.9954 5.87097 13.079 6.54444C13.7759 5.76342 15.2204 4.63159 17.7158 4.63159Z" fill="#FFFFFF"></path></g></svg>

<svg width="60" height="60" viewBox="0 0 32 32" fill="none" xmlns="http://www.w3.org/2000/svg"><mask id="a" maskUnits="userSpaceOnUse" x="0" y="0" width="32" height="32" fill="#26292C"><path d="M2.737 0h26.526A2.737 2.737 0 0132 2.737v26.526A2.737 2.737 0 0129.263 32H2.737A2.737 2.737 0 010 29.263V2.737A2.737 2.737 0 012.737 0z"/></mask><g mask="url(#a)" fill="#26292C"><path d="M2.737 0h26.526A2.737 2.737 0 0132 2.737v26.526A2.737 2.737 0 0129.263 32H2.737A2.737 2.737 0 010 29.263V2.737A2.737 2.737 0 012.737 0z"/></g><mask id="b" maskUnits="userSpaceOnUse" x="7" y="4" width="18" height="24" fill="#26292C"><path d="M13.335 13.177c0 2.142 1.087 4.454 3.48 4.454 1.773 0 3.567-1.385 3.567-4.486 0-2.719-1.41-4.544-3.509-4.544-1.71 0-3.538 1.202-3.538 4.576zm4.38-8.545c4.29 0 7.174 3.397 7.174 8.454 0 4.977-3.038 8.452-7.381 8.452-2.071 0-3.398-.887-4.091-1.53.005.153.008.324.008.506v6.75H8.982V9.28c0-.262-.084-.344-.343-.344H7.111V4.997h3.728c1.717 0 2.156.874 2.24 1.547.697-.78 2.141-1.912 4.637-1.912z"/></mask><g mask="url(#b)" fill="#26292C"><path d="M13.335 13.177c0 2.142 1.087 4.454 3.48 4.454 1.773 0 3.567-1.385 3.567-4.486 0-2.719-1.41-4.544-3.509-4.544-1.71 0-3.538 1.202-3.538 4.576zm4.38-8.545c4.29 0 7.174 3.397 7.174 8.454 0 4.977-3.038 8.452-7.381 8.452-2.071 0-3.398-.887-4.091-1.53.005.153.008.324.008.506v6.75H8.982V9.28c0-.262-.084-.344-.343-.344H7.111V4.997h3.728c1.717 0 2.156.874 2.24 1.547.697-.78 2.141-1.912 4.637-1.912z" fill="#FFF"/></g></svg>
